X: 1
T: Aughamore
M: 4/4
L: 1/8
R: reel
K: Dmaj
|:FG|AD~D2 dDBD|ADFA fedc|BEED EFGB|gfed cABc|
dfdf cece|BcdB AGFD|EFGA (3Bcd ed|cAGE D2:|
|:zg|fgaf gfec|dfed cAAg|fgaf bgec|dfeg fddf|
aAAf gfec|dfed cAGE|FGAd cded|cAGE D2:|
